X: 7961
T: Congress, The
R: reel
M: 4/4
K: Adorian
eAAG A2 (3Bcd|eaaf gedg|eA ~A2 eAcA|BdGB dG (3Bcd|
eAAG A2 (3Bcd|eaaf gedB|~c3 d (3efg ed|cdBc A2(3Bcd|
eA ~A2 EAcd|eAaf gafg|ea ~a2 AecA|BG ~G2 B,DGB|
AE ~E2 cA (3Bcd|eaaf gedB|~c3 d eged|cdBc A2Bd|
eaa^g ~a3 =g|eaaf gedg|(3efg dg (3efg dg|eaaf gabg|
eaa^g aba=g|eaaf gedB|~c3 d (3efg ed|cdBc A2(3Bcd|
eaa^g ~a3 =g|eaaf gedg|(3efg dg cgBg|eaaf gabg|
eaa^g ab=ga|eaaf gedB|~c3 d eged|cd (3efg agfg|

